X: 4147
T: LADY CLARE
R: Strathspey.
%R: strathspey
B: James Kerr "Merry Melodies" v.4 p.18 #147
Z: 2016 John Chambers <jc:trillian.mit.edu>
M: C
L: 1/8
K: F
f |\
c<A A>c d2- d>f | c<A A>d c<A A>d |\
c<A A>c d2- d>f | c>f a/g/f/e/ f3 ::\
 c |\
 f>ga>f b>ga>f | b>ag>f e<c c>e |\
 f>ga>f b>ga>f | g>b a>g f3 :|

%%sep 1 1 500
%%sep 1 1 500

